X:16
T:New Harliquin Air,A. BC.16
T:Harlequin Air,A New. BC.16
M:C|
L:1/4
Q:100
S:Benjamin Cooke MS.circa 1770, F.Kidson Coll.
R:Air
O:England
A:x
N:Yes,very squeaky notes,but as written.CGP.
Z:vmp.John Bagnall
K:D
d f f e/d/ | c e e g | f e/d/ c d | e A F D |
 d f f e/d/ | c e e g | f e/d/ A c | d2 D2 |
|f a a g/f/ | g e' e'2 | e g g f/e/ | f d' d'2 |
 d f f e/d/ | c a a g | f e/d/ A c | d2 D2 |]

